src/assets/selectIconsSpells/luce_1.svg

<svg xmlns="http://www.w3.org/2000/svg" viewBox="0 0 512 512"><path d="M0 0h512v512H0z"/><path fill="#fff" d="M54.184 19.512l116.02 144.838c-11.806 9.74-21.4 22.066-27.923 36.095L20.493 142.73v62.993l113.983 19.172c-1.12 6.056-1.707 12.295-1.707 18.67 0 3.502.177 6.965.52 10.378l-72.376 27.7 79.467.687c4.165 10.173 9.917 19.534 16.948 27.775L20.492 441.7v52.484h47.336l105.87-168.65c11.644 8.795 25.212 15.165 39.945 18.366l-23.7 150.284H294.22L253.25 344.69c8.668-1.524 16.964-4.14 24.744-7.7l37.262 42.268-21.326-51.365c6.885-4.792 13.16-10.402 18.68-16.692l182.533 146.61V348.556L329.43 284.865c4.29-9.722 7.118-20.227 8.195-31.238l84.7-25.93-86.78-7.008c-2.26-9.89-5.955-19.242-10.852-27.825l170.452-87.398V23.924L311.918 175.15c-5.33-5.95-11.342-11.28-17.912-15.86l15.533-38.382-29.968 29.967c-9.608-4.595-20.034-7.74-30.996-9.148L269.89 19.512h-40.12l1.27 121.478c-19.017.808-36.716 6.816-51.706 16.64L94.102 19.51H54.184z"/></svg>

<?xml version="1.0" encoding="UTF-8" standalone="no"?>
<!DOCTYPE svg PUBLIC "-//W3C//DTD SVG 1.1//EN" "http://www.w3.org/Graphics/SVG/1.1/DTD/svg11.dtd">
<svg width="100%" height="100%" viewBox="0 0 512 512" version="1.1" xmlns="http://www.w3.org/2000/svg" xmlns:xlink="http://www.w3.org/1999/xlink" xml:space="preserve" xmlns:serif="http://www.serif.com/" style="fill-rule:evenodd;clip-rule:evenodd;stroke-linejoin:round;stroke-miterlimit:2;">
    <rect x="0" y="0" width="512" height="512" style="fill-rule:nonzero;"/>
    <path d="M54.184,19.512L170.204,164.35C158.398,174.09 148.804,186.416 142.281,200.445L20.493,142.73L20.493,205.723L134.476,224.895C133.356,230.951 132.769,237.19 132.769,243.565C132.769,247.067 132.946,250.53 133.289,253.943L60.913,281.643L140.38,282.33C144.545,292.503 150.297,301.864 157.328,310.105L20.492,441.7L20.492,494.184L67.828,494.184L173.698,325.534C185.342,334.329 198.91,340.699 213.643,343.9L189.943,494.184L294.22,494.184L253.25,344.69C261.918,343.166 270.214,340.55 277.994,336.99L315.256,379.258L293.93,327.893C300.815,323.101 307.09,317.491 312.61,311.201L495.143,457.811L495.143,348.556L329.43,284.865C333.72,275.143 336.548,264.638 337.625,253.627L422.325,227.697L335.545,220.689C333.285,210.799 329.59,201.447 324.693,192.864L495.145,105.466L495.145,23.924L311.918,175.15C306.588,169.2 300.576,163.87 294.006,159.29L309.539,120.908L279.571,150.875C269.963,146.28 259.537,143.135 248.575,141.727L269.89,19.512L229.77,19.512L231.04,140.99C212.023,141.798 194.324,147.806 179.334,157.63L94.102,19.51L54.184,19.51L54.184,19.512Z" style="fill:rgb(255,245,90);fill-rule:nonzero;"/>
</svg>
